icons-mns/local-consoles.svg

<svg height="1em" width="auto" viewBox="0 0 105 105" fill="none" xmlns="http://www.w3.org/2000/svg">
<path d="M64.022 12.3613H82.5125C84.1408 12.3613 85.7024 13.0045 86.8537 14.1495C88.0051 15.2944 88.6519 16.8473 88.6519 18.4665V48.633C88.6519 49.4348 88.4931 50.2286 88.1846 50.9693C87.8761 51.7101 87.4238 52.3831 86.8537 52.95C86.2836 53.5169 85.6068 53.9666 84.862 54.2734C84.1171 54.5802 83.3187 54.7382 82.5125 54.7382H64.022" stroke="currentColor" stroke-width="7" stroke-miterlimit="10"/>
<path d="M78.8651 20.6221H67.6697C66.3733 20.6221 65.3223 21.6672 65.3223 22.9564V28.1637C65.3223 29.4529 66.3733 30.498 67.6697 30.498H78.8651C80.1616 30.498 81.2126 29.4529 81.2126 28.1637V22.9564C81.2126 21.6672 80.1616 20.6221 78.8651 20.6221Z" fill="currentColor"/>
<path d="M28.63 54.7382H10.1394C9.33319 54.7382 8.53484 54.5802 7.78997 54.2734C7.0451 53.9666 6.3683 53.5169 5.7982 52.95C5.2281 52.3831 4.77587 51.7101 4.46734 50.9693C4.1588 50.2286 4 49.4348 4 48.633V18.4665C4 16.8473 4.64683 15.2944 5.7982 14.1495C6.94957 13.0045 8.51116 12.3613 10.1394 12.3613H28.63" stroke="currentColor" stroke-width="7" stroke-miterlimit="10"/>
<path d="M24.9823 20.6221H13.7869C12.4904 20.6221 11.4395 21.6672 11.4395 22.9564V28.1637C11.4395 29.4529 12.4904 30.498 13.7869 30.498H24.9823C26.2788 30.498 27.3298 29.4529 27.3298 28.1637V22.9564C27.3298 21.6672 26.2788 20.6221 24.9823 20.6221Z" fill="currentColor"/>
<path d="M58.6049 5H34.0472C29.38 5 25.5964 8.76239 25.5964 13.4035V53.6974C25.5964 58.3386 29.38 62.101 34.0472 62.101H58.6049C63.2721 62.101 67.0557 58.3386 67.0557 53.6974V13.4035C67.0557 8.76239 63.2721 5 58.6049 5Z" stroke="currentColor" stroke-width="9" stroke-miterlimit="10"/>
<path d="M53.8378 16.1328H38.8143C37.0591 16.1328 35.6362 17.5477 35.6362 19.2931V26.2602C35.6362 28.0055 37.0591 29.4205 38.8143 29.4205H53.8378C55.593 29.4205 57.0159 28.0055 57.0159 26.2602V19.2931C57.0159 17.5477 55.593 16.1328 53.8378 16.1328Z" fill="currentColor"/>
</svg>

<svg xmlns="http://www.w3.org/2000/svg" width="auto" height="1em" fill="non" stroke="currentColor" viewBox="0 0 105 105">
    <path stroke-miterlimit="10" stroke-width="7" d="M64.022 12.361h18.49c1.629 0 3.19.643 4.342 1.788a6.1 6.1 0 0 1 1.798 4.318v30.166a6.08 6.08 0 0 1-1.798 4.317 6.14 6.14 0 0 1-4.341 1.788H64.022"/>
    <path fill="currentColor" d="M78.865 20.622H67.67a2.34 2.34 0 0 0-2.348 2.334v5.208a2.34 2.34 0 0 0 2.348 2.334h11.195a2.34 2.34 0 0 0 2.348-2.334v-5.208a2.34 2.34 0 0 0-2.348-2.334"/>
    <path stroke-miterlimit="10" stroke-width="7" d="M28.63 54.738H10.14a6.17 6.17 0 0 1-4.342-1.788A6.1 6.1 0 0 1 4 48.633V18.466a6.1 6.1 0 0 1 1.798-4.317 6.16 6.16 0 0 1 4.341-1.788H28.63"/>
    <path fill="currentColor" d="M24.982 20.622H13.787a2.34 2.34 0 0 0-2.347 2.334v5.208a2.34 2.34 0 0 0 2.347 2.334h11.195a2.34 2.34 0 0 0 2.348-2.334v-5.208a2.34 2.34 0 0 0-2.348-2.334"/>
    <path stroke-miterlimit="10" stroke-width="9" d="M58.605 5H34.047c-4.667 0-8.45 3.762-8.45 8.404v40.293c0 4.642 3.783 8.404 8.45 8.404h24.558c4.667 0 8.45-3.762 8.45-8.404V13.404c0-4.642-3.783-8.404-8.45-8.404Z"/>
    <path fill="currentColor" d="M53.838 16.133H38.814a3.17 3.17 0 0 0-3.178 3.16v6.967a3.17 3.17 0 0 0 3.178 3.16h15.024a3.17 3.17 0 0 0 3.178-3.16v-6.967a3.17 3.17 0 0 0-3.178-3.16"/>
</svg>
